picto/ramp-down-right-framed.svg

<svg class="color-immutable" width="30" height="30" viewBox="0 0 30 30" fill="none" xmlns="http://www.w3.org/2000/svg"><path d="M29.9999 0H0V29.9999H29.9999V0Z" fill="#2D327D"/><path d="M25.4999 2.99999C26.3249 2.99999 26.9999 3.67499 26.9999 4.49999V25.4999C26.9999 26.3249 26.3249 26.9999 25.4999 26.9999H4.49999C3.67499 26.9999 2.99999 26.3249 2.99999 25.4999V4.49999C2.99999 3.67499 3.67499 2.99999 4.49999 2.99999H25.4999ZM25.4999 2.62499H4.49999C3.46612 2.62499 2.62499 3.46612 2.62499 4.49999V25.4999C2.62499 26.5338 3.46612 27.3749 4.49999 27.3749H25.4999C26.5338 27.3749 27.3749 26.5338 27.3749 25.4999V4.49999C27.3749 3.46612 26.5338 2.62499 25.4999 2.62499Z" fill="white"/><path d="M6.00023 24.0005H20.2505V23.4013L6.00023 21.0764V24.0005Z" fill="white"/><path d="M23.4852 14.6041C23.764 14.6041 23.9907 14.3772 23.9907 14.0978C23.9907 13.8948 23.8695 13.7114 23.6829 13.632L22.725 13.2252V14.3253L23.2868 14.5638C23.3492 14.5905 23.4173 14.6041 23.4852 14.6041Z" fill="white"/><path d="M22.1251 16.0513V10.4669C22.1251 9.63905 21.4531 8.96698 20.625 8.96698C20.1367 8.96698 19.6795 9.20458 19.3979 9.60365L17.8368 11.8229C17.748 11.9494 17.7002 12.0999 17.7002 12.2547V15.2439C17.7002 15.5235 17.927 15.7503 18.2064 15.7503C18.486 15.7503 18.7127 15.5235 18.7127 15.2439V12.4683L19.4251 11.4557V19.2003L18.1018 21.4592C18.0372 21.5689 18.004 21.6929 18.004 21.8192C18.004 22.2125 18.3229 22.5322 18.7162 22.5322C18.9694 22.5322 19.2031 22.3976 19.3308 22.1799L20.8219 19.6344C20.8892 19.5199 20.9253 19.3888 20.9253 19.2557V16.9717L22.5753 19.8112V23.1003C22.5753 23.4935 22.8944 23.8125 23.2876 23.8125C23.6809 23.8125 23.9998 23.4935 23.9998 23.1003V19.4803C23.9998 19.3479 23.9652 19.2182 23.8986 19.1037L22.1251 16.0513Z" fill="white"/><path d="M20.8385 8.60608C21.5626 8.60608 22.1509 8.01831 22.1509 7.29351C22.1509 6.56901 21.5627 5.98116 20.8385 5.98116C20.1138 5.98116 19.5263 6.56901 19.5263 7.29351C19.5264 8.01823 20.1138 8.60608 20.8385 8.60608Z" fill="white"/></svg>

<svg class="color-immutable" width="30" height="30" viewBox="0 0 30 30" fill="none" xmlns="http://www.w3.org/2000/svg"><path d="M30 0H0v30h30V0Z" fill="#2D327D"/><path d="M25.5 3c.825 0 1.5.675 1.5 1.5v21c0 .825-.675 1.5-1.5 1.5h-21c-.825 0-1.5-.675-1.5-1.5v-21C3 3.675 3.675 3 4.5 3h21Zm0-.375h-21A1.877 1.877 0 0 0 2.625 4.5v21c0 1.034.841 1.875 1.875 1.875h21a1.877 1.877 0 0 0 1.875-1.875v-21A1.877 1.877 0 0 0 25.5 2.625Z" fill="#fff"/><path d="M6 24h14.25v-.599L6 21.076V24ZM23.485 14.604a.506.506 0 0 0 .198-.972l-.958-.407v1.1l.562.239c.062.027.13.04.198.04Z" fill="#fff"/><path d="M22.125 16.051v-5.584a1.5 1.5 0 0 0-2.727-.863l-1.561 2.219a.751.751 0 0 0-.137.432v2.989a.506.506 0 0 0 1.013 0v-2.776l.712-1.012V19.2l-1.323 2.26a.713.713 0 0 0 1.229.72l1.49-2.546a.749.749 0 0 0 .104-.378v-2.284l1.65 2.84V23.1a.712.712 0 0 0 1.425 0v-3.62a.748.748 0 0 0-.101-.376l-1.774-3.053ZM20.838 8.606a1.313 1.313 0 1 0 0-2.626 1.313 1.313 0 0 0 0 2.626Z" fill="#fff"/></svg>
